X: 19
T: Hans Thamsen
R: S\"onderhoning
M: 2/4
L: 1/16
K: D
f4 | f4 d2ff | g2f2 e2d2 | c3e e4 | f4 f2ef \
   | g2g2 c2c2 | d4 d3f | a4 a4 ||
w: Hans Tham-sen
|| b2a2 g2f2 | g4 g2fg | a2g2 f2e2 | f4 d4 \
 | g2f2 e2d2 | c3e e4 | f4 f2ef | g2g2 c2c2 | d4 d4 |]
